lib/brands/icons/bitbucket.svg

<svg xmlns="http://www.w3.org/2000/svg" fill="none" aria-hidden="true" viewBox="0 0 48 48"><g id="bitbucket-Icon"><g id="Bitbucket"><path id="Shape" fill="#2684FF" fill-rule="evenodd" d="M8.24873 9.96842C8.44652 9.73899 8.73563 9.60876 9.03852 9.61266L38.9615 9.61779C39.2644 9.61388 39.5535 9.74411 39.7513 9.97354C39.9491 10.203 40.0353 10.5081 39.9868 10.8071L35.6344 37.5261C35.5532 38.0275 35.1171 38.3938 34.6091 38.3873H13.7292C13.0525 38.3817 12.4775 37.891 12.3656 37.2236L8.01323 10.802C7.96474 10.503 8.05095 10.1978 8.24873 9.96842ZM20.7011 28.7086H27.3655L28.9803 19.2811H18.8966L20.7011 28.7086Z" clip-rule="evenodd"/><path id="Shape_2" fill="url(#paint0_linear_94_17206)" d="M38.6026 19.2811H28.9803L27.3655 28.7086H20.7011L12.832 38.049C13.0814 38.2647 13.3994 38.3846 13.7292 38.3873H34.6142C35.1221 38.3939 35.5583 38.0275 35.6395 37.5261L38.6026 19.2811Z"/></g></g><defs><linearGradient id="paint0_linear_94_17206" x1="32.4574" x2="21.342" y1="16.0263" y2="31.8087" gradientUnits="userSpaceOnUse"><stop offset="0.18" stop-color="#0052CC"/><stop offset="1" stop-color="#2684FF"/></linearGradient></defs></svg>

<svg xmlns="http://www.w3.org/2000/svg" fill="none" aria-hidden="true" viewBox="0 0 48 48"><path fill="#2684FF" fill-rule="evenodd" d="M8.249 9.968c.198-.229.487-.36.79-.355l29.923.005a1.025 1.025 0 0 1 1.025 1.19l-4.353 26.718a1.025 1.025 0 0 1-1.025.861H13.73a1.394 1.394 0 0 1-1.363-1.163L8.013 10.802a1.025 1.025 0 0 1 .236-.834ZM20.7 28.708h6.665l1.614-9.427H18.897L20.7 28.71Z" clip-rule="evenodd"/><path fill="url(#a)" d="M38.603 19.281H28.98l-1.614 9.428H20.7l-7.869 9.34c.25.216.567.336.897.338h20.885c.508.007.944-.36 1.026-.86l2.963-18.246Z"/><defs><linearGradient id="a" x1="32.457" x2="21.342" y1="16.026" y2="31.809" gradientUnits="userSpaceOnUse"><stop offset=".18" stop-color="#0052CC"/><stop offset="1" stop-color="#2684FF"/></linearGradient></defs></svg>
